svg/040-black.svg

<svg height="288pt" stroke-linejoin="round" viewBox="0 0 432 288" width="432pt" xmlns="http://www.w3.org/2000/svg"><g stroke-linejoin="round"><path d="m0 288h432v-288h-432z" fill="none"/><path d="m278.944298 222.140876c16.779517-12.191032 29.274429-29.388802 35.683635-49.114307s6.409207-40.983118.000002-60.708624-18.904116-36.923276-35.683633-49.114309c-16.779518-12.191033-36.996709-18.759997-57.737333-18.759997v98.228616z"/></g></svg>

<?xml version="1.0" encoding="utf-8" standalone="no"?>
<!DOCTYPE svg PUBLIC "-//W3C//DTD SVG 1.1//EN"
  "http://www.w3.org/Graphics/SVG/1.1/DTD/svg11.dtd">
<!-- Created with matplotlib (http://matplotlib.org/) -->
<svg height="288pt" version="1.1" viewBox="0 0 432 288" width="432pt" xmlns="http://www.w3.org/2000/svg" xmlns:xlink="http://www.w3.org/1999/xlink">
 <defs>
  <style type="text/css">
*{stroke-linecap:butt;stroke-linejoin:round;}
  </style>
 </defs>
 <g id="figure_1">
  <g id="patch_1">
   <path d="M 0 288 
L 432 288 
L 432 0 
L 0 0 
z
" style="fill:none;"/>
  </g>
  <g id="axes_1">
   <g id="patch_2">
    <path d="M 278.944298 222.140876 
C 295.723815 209.949844 308.218727 192.752074 314.627933 173.026569 
C 321.037139 153.301064 321.03714 132.043451 314.627935 112.317945 
C 308.21873 92.592439 295.723819 75.394669 278.944302 63.203636 
C 262.164784 51.012603 241.947593 44.443639 221.206969 44.443639 
L 221.206969 142.672255 
L 278.944298 222.140876 
z
"/>
   </g>
   <g id="patch_3">
    <path d="M 221.206988 44.443639 
C 205.706245 44.443636 190.42339 48.112722 176.612126 55.14991 
C 162.800862 62.187098 150.849468 72.394549 141.738358 84.934911 
C 132.627249 97.475274 126.612565 111.995999 124.187713 127.305901 
C 121.76286 142.615804 122.99601 158.284473 127.786001 173.026556 
C 132.575992 187.768639 140.788163 201.169687 151.748842 212.130369 
C 162.709522 223.09105 176.110569 231.303224 190.852651 236.093218 
C 205.594732 240.883212 221.263402 242.116364 236.573305 239.691514 
C 251.883207 237.266665 266.403933 231.251984 278.944298 222.140876 
L 276.057431 218.167445 
C 264.144085 226.822997 250.349396 232.536944 235.804988 234.840551 
C 221.26058 237.144158 206.375344 235.972664 192.370367 231.422169 
C 178.365389 226.871675 165.634394 219.07011 155.221749 208.657463 
C 144.809104 198.244816 137.007541 185.51382 132.457049 171.508841 
C 127.906558 157.503862 126.735066 142.618626 129.038676 128.074219 
C 131.342285 113.529812 137.056235 99.735123 145.711789 87.821779 
C 154.367343 75.908434 165.721167 66.211355 178.841868 59.526027 
C 191.962569 52.840699 206.481281 49.355067 221.206987 49.35507 
z
"/>
   </g>
   <g id="matplotlib.axis_1"/>
   <g id="matplotlib.axis_2"/>
  </g>
 </g>
</svg>
